X: 10
T: Quand j'etais chez mon père
L: 1/8
M: 4/4
K: G
%%MIDI chordvol 0
%%MIDI bassvol 0
[V:N]|: d | "G"GABc dBd2 | "C"eeee/e/ e "G"d/d3/2 :|
[V:T]|: B |    GGGA BGB2 |    cccc/c/ c    B/B3/2 :|
[V:B]|: D |    DDDD GDG2 |    GGGG/G/ G    D/D3/2 :|
w: J'me cache derr-ièr la porte oh djè ral-fa dla dla dla hou-di-ame
w: I'~y~a de la soupe dans~l'-potte, oh djè!
w: I'~y~a des os sous la table, oh djè!
w: Quand j'e-tais chez mon père, oh djè!
[V:N]| e | "G"dcBA G4   | GGGG/G/      B "D"A/A3/2 e |
[V:T]| c |    BAGF G4   | DDDD/D/      G    F/F3/2 c |
[V:B]| G |    GGGD D4   | B,B,B,B,/B,/ D    D/D3/2 G |
w: Ay-ant honte à ren-trer Ral-fa dla dla dla hou-di-ame Ay-
w: mais, mets-y pas ton nez * * * * * * * *  mais,
w: Les chiens les ont ron-gés, * * * * * * * * Les
w: Ti gar-çon gar-çon-nait * * * * * * * * Ti
[V:N]"G"    dcBA G2 "C"c2 | "G"BG/G/ "D"A A/ "G"G5 |
[V:T]       BAGF G4       |    GG/G/    F F/    G5 |
[V:B]       GGGD D2    E2 |    DD/D/    D D/    D5 |
w: ant honte à ren-trer Ral-fa dla dla hou-di-ame
w: mets-y pas ton nez
w: chiens les ont ron-gés
w: gar-çon gar-çon-nait

